X:597
T:
S:(Renländaren) uppteckningen efter »Florsen» i Burs.
R:schottis
O:Gotland, Burs
M:2/4
L:1/16
K:G
D2B2 BAG2|D2c2 cBA2|e2d2 c2AF|G2g2 gdBG|D2B2 BAG2|D2c2 cBA2|e2d2 c2AF|A2G2
G2 z2::d2B2 BAB2|d2c2 cBc2|e2c2 cBc2|e2d2 LB4|d2B2 BAB2|d2c2 cBc2|e2d2
c2AF|G2g2 g2 z2:|

